X:1
T:Beethoven - Sonata 30, Mvt.3. {Professional production score.}
%%score { ( 1 2 ) | ( 3 4 ) }
L:1/8
Q:1/4=35
M:3/4
K:E
V:1 treble nm="Piano" snm="Pno."
V:2 treble 
V:3 bass 
V:4 bass 
V:1
"^Andante  molto  cantabile  ed  espressivo.""^Gesangvoll,  mit  innigster  Empfindung."!pp!"_mezza voce" (G2 E3 F) | %1
 [F,D]2 [F,A,B,]4 |!pp! (G2 E3 F) |!<(! (F2 ^A2 B2) |{/B,EG} (B2!<)!!p!!>(! E3 G/!>)!F/) | %5
!pp! (D2 B,2{/A,B,A,G,} A,2) |"_cresc." G,2 (E3 ^A,) |[K:bass]!p!!>(! (^A,4!pp! B,2)!>)! :: %8
[K:treble]!p! (B2 B3 c | B2 A3 B) | (A2!<(! G3) e | ([DG]2!mp! [C^^F]2!<)!!>(! [B,G]2)!>)! | %12
!p!"_cresc."{/=A,CF} A2 A3 c |!mf!!>(!{/DFA} (c3 B) (.[FA].[EG])!>)! | %14
"_mezza voce"!p! (G>A) (B3 A) |!>(! [B,DFA]4!pp! [B,EG]2!>)! :: %16
[M:3/4]!p![Q:1/4=45]"^VAR.  I.""^molto espressivo."{/B} !>!b4 e>f | e2 d2- d7/4B/4 | %18
{/B} !>!b3 d (5:4:5((e/4f/4e/4d/4e/4)f/g/) |"_cresc." (g2 f3 d) |{/B} (!>!b3 g)(.f>.e) | %21
 (e d2) (.c.B.A) | (AGFB ^Ae) |1!mp!!>(! (fef=g) [B^d]>B!>)! :|2!mp! (fef=g) [B^d]>B | %25
!>(!{/B} b3!>)!!<(! (B!p!!>(! ^B>!<)!c)!>)! |:!p!!>(!{/c} =a3!>)!!<(! (A!p!!>(! ^A>!<)!B)!>)! | %27
!p!{/B} g3 (G A>e) |"_cresc." ([Ee][Dd]- d^^F G=A) |{/a} !>!a'3!mf!!<(! (g a>c') | %30
 (^a>c') (a>b)!<)!!f!!>(! (=a>g)!>)! |"_mezza voce"!p!{/g} g'{/g}e'- (e'/d'/)c'- c'/b/a- |1 %32
 (a^a-) (a/b/.f)"_cresc." (g>f) |!>(!{/f} b3!>)! (B!p!!>(!!<(! ^B>!<)!(c)!>)! :|2 %34
 (a)^a-)[Q:1/4=30] (a/b/[Q:1/4=20].f) g2 |][Q:1/4=50] z6 | z6 | z6 | z6 | z6 | z6 | z6 | z6 | z6 | %44
 z6 | z6 | z6 | z6 | z6 | z6 | z6 | z6 | z6 | z6 | z6 | z6 | z6 | z6 | z6 | z6 | z6 | z6 | z6 | %63
 z6 | z6 | z6 | z6 | z6 | z6 | z6 | z6 | z6 | z6 | z6 | z6 | z6 | z6 | z6 | z6 | z6 | z6 | z6 | %82
 z6 | z6 | z6 | z6 | z6 | z6 | z6 | z6 | z6 | z6 | z6 | z6 | z6 | z6 | z6 | z6 | z6 | z6 | z6 | %101
 z6 | z6 | z6 | z6 | z6 | z6 | z6 | z6 | z6 | z6 | z6 | z6 | z6 | z6 | z6 | z6 | z6 | z6 | z6 | %120
 z6 | z6 | z6 | z6 | z6 | z6 | z6 | z6 | z6 | z6 | z6 | z6 | z6 | z6 | z6 |] %135
V:2
 B,2 B,2 C2 | x6 | [G,B,]2 B,2 C2 | D2 [CE]2 [DF]2 | z2 (B,2 C2) | x6 | x6 | %7
[K:bass] (=G,2 E,2 D,2) ::[K:treble] z2 F2 ^G2 | z2 E2 F2 | B,2 E2 E2 | x6 | x6 | x6 | E2 (E2 D2) | %15
 x6 ::[M:3/4] x6 | x6 | x6 | x6 | x6 | x6 | x4 ^A2 |1 ^A4 x2 :|2 ^A4 x2 | x6 |: x6 | x4 E2- | %28
 x2 DC B,=A, | x6 | x6 | x6 |1 x6 | x6 :|2 x6 |] x6 | x6 | x6 | x6 | x6 | x6 | x6 | x6 | x6 | x6 | %45
 x6 | x6 | x6 | x6 | x6 | x6 | x6 | x6 | x6 | x6 | x6 | x6 | x6 | x6 | x6 | x6 | x6 | x6 | x6 | %64
 x6 | x6 | x6 | x6 | x6 | x6 | x6 | x6 | x6 | x6 | x6 | x6 | x6 | x6 | x6 | x6 | x6 | x6 | x6 | %83
 x6 | x6 | x6 | x6 | x6 | x6 | x6 | x6 | x6 | x6 | x6 | x6 | x6 | x6 | x6 | x6 | x6 | x6 | x6 | %102
 x6 | x6 | x6 | x6 | x6 | x6 | x6 | x6 | x6 | x6 | x6 | x6 | x6 | x6 | x6 | x6 | x6 | x6 | x6 | %121
 x6 | x6 | x6 | x6 | x6 | x6 | x6 | x6 | x6 | x6 | x6 | x6 | x6 | x6 |] %135
V:3
 (E,,2 G,,2 A,,2 | B,,2 C,2 D,2) | (E,2 G,2 ^A,2 | B,2 F,2 B,,=A,,) | (G,,2 G,2) A,,2 | %5
 [B,,F,]2 [C,E,]2 [D,F,]2 | E,2 E,4 | (E,,2 =G,,2 B,,2) :: B,2 [D,B,]2 [^E,B,]2 | %9
 [F,B,]2 [C,B,]2 [D,B,]2 | [E,B,]2 ([B,,B,]2 [C,C]2) | [D,B,]2 ([D,^A,]2 [G,,G,]2) | %12
 [F,,F,]2 [F,=A,]2 [E,F,A,]2 |{/D,-F,-A,-B,-} [D,F,A,B,]4- [D,F,A,B,][E,G,B,] | z2 (G,2 F,2) | %15
 (E,,2 B,,2 E,2) ::[M:3/4] E,,2 [B,,E,G,B,]2 [B,,E,G,B,]2 | F,,2 [B,,F,A,B,]2 [B,,F,A,B,]2 | %18
 G,,2 [B,,E,G,B,]2 [B,,E,G,B,]2 | A,,2 [B,,D,F,B,]2 [B,,D,F,B,]2 | G,,2 [B,,E,G,B,]2 [B,,E,G,B,]2 | %21
 F,,2 [B,,D,F,A,]2 [D,,B,,]2 | B,,2 B,,2 C,,2 |1 (C,,=G,,F,,E,,) ([B,,,F,,]C,,/^D,,/) :|2 %24
 (C,,=G,,F,,E,,) ([B,,,F,,][C,,E,,]) | [^D,,F,,]2!p! ([D,F,B,]2 [^E,G,C]2) |: %26
 F,,2 ([F,A,]2 [D,F,B,]2) | E,,2 [E,G,B,]2 [C,C-]2 | (CB,-) B,^A, [G,,G,][F,,F,] | %29
 !>!F,,2 [F,A,]2 [C,E,A,]2 | D,,2 [D,F,A,B,]2 [E,G,B,]2 | B,,2 [G,B,E]2 [F,A,B,D]2 |1 %32
 E,,2 [E,F,A,B,D]2 [E,G,B,E][D,F,B,D] | D,,2 [D,F,B,]2 [^E,G,C]2 :|2 %34
 E,,2 [E,F,A,B,D]2 [E,G,B,E]2 |] z6 | z6 | z6 | z6 | z6 | z6 | z6 | z6 | z6 | z6 | z6 | z6 | z6 | %48
 z6 | z6 | z6 | z6 | z6 | z6 | z6 | z6 | z6 | z6 | z6 | z6 | z6 | z6 | z6 | z6 | z6 | z6 | z6 | %67
 z6 | z6 | z6 | z6 | z6 | z6 | z6 | z6 | z6 | z6 | z6 | z6 | z6 | z6 | z6 | z6 | z6 | z6 | z6 | %86
 z6 | z6 | z6 | z6 | z6 | z6 | z6 | z6 | z6 | z6 | z6 | z6 | z6 | z6 | z6 | z6 | z6 | z6 | z6 | %105
 z6 | z6 | z6 | z6 | z6 | z6 | z6 | z6 | z6 | z6 | z6 | z6 | z6 | z6 | z6 | z6 | z6 | z6 | z6 | %124
 z6 | z6 | z6 | z6 | z6 | z6 | z6 | z6 | z6 | z6 | z6 |] %135
V:4
 x6 | x6 | x6 | x6 | G,,4 x2 | x6 | x2 [C,,C,]2 [=C,,=C,]2 | (=C,,4 B,,,2) :: x6 | x6 | x6 | x6 | %12
 x6 | x6 | B,,4 B,,2 | x6 ::[M:3/4] x6 | x6 | x6 | x6 | x6 | x6 | (E,,2 D,,=D,, C,,A,,,) |1 %23
 F,,,4 x2 :|2 F,,,4 x2 | x6 |: x6 | x6 | D,2 D,2 x2 | x6 | x6 | x6 |1 x6 | x6 :|2 x6 |] x6 | x6 | %37
 x6 | x6 | x6 | x6 | x6 | x6 | x6 | x6 | x6 | x6 | x6 | x6 | x6 | x6 | x6 | x6 | x6 | x6 | x6 | %56
 x6 | x6 | x6 | x6 | x6 | x6 | x6 | x6 | x6 | x6 | x6 | x6 | x6 | x6 | x6 | x6 | x6 | x6 | x6 | %75
 x6 | x6 | x6 | x6 | x6 | x6 | x6 | x6 | x6 | x6 | x6 | x6 | x6 | x6 | x6 | x6 | x6 | x6 | x6 | %94
 x6 | x6 | x6 | x6 | x6 | x6 | x6 | x6 | x6 | x6 | x6 | x6 | x6 | x6 | x6 | x6 | x6 | x6 | x6 | %113
 x6 | x6 | x6 | x6 | x6 | x6 | x6 | x6 | x6 | x6 | x6 | x6 | x6 | x6 | x6 | x6 | x6 | x6 | x6 | %132
 x6 | x6 | x6 |] %135

